static/assets/images/networks/moonbeam-mono.svg

<svg width="255" height="256" viewBox="0 0 255 256" fill="none" xmlns="http://www.w3.org/2000/svg">
<path d="M233.134 193.046C233.177 187.313 254.979 187.559 254.83 182.2C254.723 178.068 245.068 178.164 248.102 169.421C252.573 156.397 255 142.412 255 127.861C255 57.2424 197.898 0 127.5 0C57.0807 0 6.46432e-05 57.2424 6.46432e-05 127.861C-0.0144822 142.332 2.42623 156.7 7.21767 170.35C9.02739 176.147 0.0213772 178.421 0.0213772 181.88C0.0213772 187.303 18.9915 186.577 18.9915 192.875C18.9915 198.384 0.244939 200.071 0.244939 205.622C0.244939 213.276 41.7726 210.607 42.2943 217.194C42.7094 222.287 28.0294 222.585 27.9336 228.019C27.7952 236.688 84.6204 233.848 84.6204 239.624C84.6204 243.99 58.7734 242.41 58.7734 247.566C58.7734 252.723 92.7961 256 130.289 256C167.782 256 193.661 251.815 193.661 247.289C193.661 242.773 169.517 243.712 170.018 239.624C170.891 232.503 224.458 236.143 224.458 227.913C224.458 223.568 209.725 222.553 210.194 217.878C210.875 211.259 255 212.251 255 205.387C255 199.996 233.145 198.662 233.166 193.068L233.134 193.046ZM198.963 176.435C197.792 180.801 211.226 181.453 211.226 186.011C211.226 191.552 170.263 189.342 170.667 196.676C170.923 201.288 199.772 202.067 199.218 206.892C198.43 213.874 154.55 210.394 154.114 217.077C153.794 221.988 175.532 222.148 175.575 226.621C175.617 230.389 158.499 232.439 125.754 232.439C88.4208 232.439 70.2917 230.421 72.3462 226.215C74.2731 222.287 107.316 223.013 106.986 216.831C106.646 210.661 48.3089 212.486 46.5418 206.497C45.0834 201.523 65.7142 200.498 65.5864 195.768C65.448 190.954 39.1539 192.043 38.579 186.214C38.2064 182.371 52.3223 182.627 51.7155 177.801C51.2684 174.3 45.4347 174.791 41.9856 167.553C35.3366 153.159 32.4098 137.317 33.475 121.49C34.5403 105.662 39.5634 90.3584 48.0808 76.9908C56.5983 63.6232 68.3357 52.6221 82.2102 45.0025C96.0847 37.383 111.649 33.3904 127.468 33.3932C142.975 33.3894 158.244 37.2252 171.918 44.5602C185.592 51.8952 197.248 62.5024 205.853 75.4402C214.457 88.378 219.743 103.246 221.241 118.725C222.739 134.203 220.403 149.813 214.441 164.169C210.023 174.225 200.07 172.208 198.931 176.446H198.952L198.963 176.435Z" fill="black"/>
</svg>

<svg xmlns="http://www.w3.org/2000/svg" fill="none" viewBox="0 0 255 256"><path fill="#000" d="M233.134 193.046c.043-5.733 21.845-5.487 21.696-10.846-.107-4.132-9.762-4.036-6.728-12.779 4.471-13.024 6.898-27.009 6.898-41.56C255 57.242 197.898 0 127.5 0 57.08 0 0 57.242 0 127.861a127.9 127.9 0 0 0 7.218 42.489c1.81 5.797-7.197 8.071-7.197 11.53 0 5.423 18.97 4.697 18.97 10.995 0 5.509-18.746 7.196-18.746 12.747 0 7.654 41.528 4.985 42.05 11.572.414 5.093-14.266 5.391-14.361 10.825-.139 8.669 56.686 5.829 56.686 11.605 0 4.366-25.847 2.786-25.847 7.942S92.796 256 130.29 256s63.372-4.185 63.372-8.711c0-4.516-24.144-3.577-23.643-7.665.873-7.121 54.44-3.481 54.44-11.711 0-4.345-14.733-5.36-14.264-10.035.681-6.619 44.806-5.627 44.806-12.491 0-5.391-21.855-6.725-21.834-12.319zm-34.171-16.611c-1.171 4.366 12.263 5.018 12.263 9.576 0 5.541-40.963 3.331-40.559 10.665.256 4.612 29.105 5.391 28.551 10.216-.788 6.982-44.668 3.502-45.104 10.185-.32 4.911 21.418 5.071 21.461 9.544.042 3.768-17.076 5.818-49.821 5.818-37.333 0-55.462-2.018-53.408-6.224 1.927-3.928 34.97-3.202 34.64-9.384-.34-6.17-58.677-4.345-60.444-10.334-1.459-4.974 19.172-5.999 19.044-10.729-.138-4.814-26.432-3.725-27.007-9.554-.373-3.843 13.743-3.587 13.136-8.413-.447-3.501-6.28-3.01-9.73-10.248a94.69 94.69 0 0 1 6.096-90.562 94.3 94.3 0 0 1 34.13-31.989 94 94 0 0 1 45.257-11.609 94 94 0 0 1 44.45 11.167 94.3 94.3 0 0 1 33.935 30.88 94.6 94.6 0 0 1 15.388 43.285 94.7 94.7 0 0 1-6.8 45.444c-4.418 10.056-14.371 8.039-15.51 12.277h.021z"/></svg>
